material/.icons/material/metronome-tick.svg

<svg xmlns="http://www.w3.org/2000/svg" viewBox="0 0 24 24"><path d="M12 1.75l-3.43.92-4.5 16.83c-.01 0-.07.34-.07.5 0 1.11.89 2 2 2h12c1.11 0 2-.89 2-2 0-.16-.06-.5-.07-.5l-4.5-16.83L12 1.75M10.29 4h3.42l3.49 13H13v-5h-2v5H6.8l3.49-13M11 5v4h-1v2h4V9h-1V5h-2z"/></svg>

<?xml version="1.0" encoding="UTF-8"?><!DOCTYPE svg PUBLIC "-//W3C//DTD SVG 1.1//EN" "http://www.w3.org/Graphics/SVG/1.1/DTD/svg11.dtd"><svg xmlns="http://www.w3.org/2000/svg" xmlns:xlink="http://www.w3.org/1999/xlink" version="1.1" id="mdi-metronome-tick" width="24" height="24" viewBox="0 0 24 24"><path d="M12,1.75L8.57,2.67L4.07,19.5C4.06,19.5 4,19.84 4,20C4,21.11 4.89,22 6,22H18C19.11,22 20,21.11 20,20C20,19.84 19.94,19.5 19.93,19.5L15.43,2.67L12,1.75M10.29,4H13.71L17.2,17H13V12H11V17H6.8L10.29,4M11,5V9H10V11H14V9H13V5H11Z" /></svg>
